fs/shape_intersect_24_filled.svg

<svg viewBox="0 0 24 24" fill="none" xmlns="http://www.w3.org/2000/svg" height="1em" width="1em">
  <path d="M2 5.25C2 3.45507 3.45507 2 5.25 2H13.25C15.0449 2 16.5 3.45507 16.5 5.25V7.5H18.75C20.5449 7.5 22 8.95507 22 10.75V18.75C22 20.5449 20.5449 22 18.75 22H10.75C8.95507 22 7.5 20.5449 7.5 18.75V16.5H5.25C3.45507 16.5 2 15.0449 2 13.25V5.25ZM15 5.25C15 4.2835 14.2165 3.5 13.25 3.5H5.25C4.2835 3.5 3.5 4.2835 3.5 5.25V13.25C3.5 14.2165 4.2835 15 5.25 15H7.5V10.75C7.5 10.113 7.68329 9.51872 8 9.01716C8.24102 8.63547 8.55931 8.30744 8.93289 8.05505C8.96068 8.03628 8.98877 8.01793 9.01716 8C9.51872 7.68329 10.113 7.5 10.75 7.5H15V5.25ZM16 14.9828C15.9821 15.0112 15.9637 15.0393 15.945 15.0671C15.6926 15.4407 15.3645 15.759 14.9828 16C14.4813 16.3167 13.887 16.5 13.25 16.5H9V18.75C9 19.7165 9.7835 20.5 10.75 20.5H18.75C19.7165 20.5 20.5 19.7165 20.5 18.75V10.75C20.5 9.7835 19.7165 9 18.75 9H16.5V13.25C16.5 13.887 16.3167 14.4813 16 14.9828Z" fill="#212121"/>
</svg>

<svg viewBox="0 0 24 24" fill="none" xmlns="http://www.w3.org/2000/svg" height="1em" width="1em">
  <path d="M2 5.25A3.25 3.25 0 0 1 5.25 2h8a3.25 3.25 0 0 1 3.25 3.25V7.5h2.25A3.25 3.25 0 0 1 22 10.75v8A3.25 3.25 0 0 1 18.75 22h-8a3.25 3.25 0 0 1-3.25-3.25V16.5H5.25A3.25 3.25 0 0 1 2 13.25v-8Zm13 0a1.75 1.75 0 0 0-1.75-1.75h-8A1.75 1.75 0 0 0 3.5 5.25v8c0 .966.784 1.75 1.75 1.75H7.5v-4.25c0-.637.183-1.231.5-1.733A3.268 3.268 0 0 1 9.017 8a3.235 3.235 0 0 1 1.733-.5H15V5.25Zm1 9.733A3.267 3.267 0 0 1 14.983 16c-.502.317-1.096.5-1.733.5H9v2.25c0 .966.784 1.75 1.75 1.75h8a1.75 1.75 0 0 0 1.75-1.75v-8A1.75 1.75 0 0 0 18.75 9H16.5v4.25c0 .637-.183 1.231-.5 1.733Z" fill="#212121"/>
</svg>
